src/IMAGE/logo-text.svg

<svg width="228" height="65" viewBox="0 0 228 65" fill="none" xmlns="http://www.w3.org/2000/svg">
<g clip-path="url(#clip0_308_820)">
<path d="M91.3289 12.5051C93.9142 8.99523 93.1401 4.07201 89.6001 1.5088C86.06 -1.05442 81.0944 -0.28698 78.5092 3.22291L42.2134 52.5001C39.6282 56.01 40.4022 60.9332 43.9423 63.4965C47.4823 66.0597 52.4479 65.2922 55.0332 61.7823L91.3289 12.5051Z" fill="white"/>
<path d="M91.0012 24.076C91.136 23.9424 91.2573 23.8088 91.4055 23.6886C91.2707 23.8088 91.136 23.9424 91.0012 24.076Z" fill="white"/>
<path d="M98.251 21.8181C98.3857 21.8448 98.507 21.8715 98.6283 21.8982C98.507 21.8715 98.3723 21.8448 98.251 21.8181Z" fill="white"/>
<path d="M92.6047 22.8068C92.6047 22.8068 92.6317 22.7934 92.6452 22.7801C92.6452 22.7801 92.6182 22.7934 92.6047 22.8068Z" fill="white"/>
<path d="M99.7334 22.2456C99.8412 22.2857 99.9625 22.3391 100.07 22.3792C99.9625 22.3258 99.8412 22.2857 99.7334 22.2456Z" fill="white"/>
<path d="M100.596 22.6598C100.596 22.6598 100.69 22.7133 100.744 22.74C100.69 22.7133 100.65 22.6865 100.596 22.6598Z" fill="white"/>
<path d="M90.3543 24.8242C90.3543 24.8242 90.3273 24.8643 90.3139 24.8777L69.9791 52.4943C67.4053 55.9949 68.1869 60.9383 71.704 63.4902C75.2212 66.0421 80.2206 65.2672 82.7945 61.7801L96.7283 42.8612L90.3139 34.1634C88.2251 31.3176 88.3464 27.5231 90.3543 24.8376V24.8242Z" fill="url(#paint0_linear_308_820)"/>
<path d="M92.0521 23.1675C92.0521 23.1675 92.0252 23.1942 92.0117 23.1942C92.2004 23.0473 92.4025 22.927 92.6047 22.7934C92.416 22.9137 92.2273 23.0205 92.0521 23.1542V23.1675Z" fill="white"/>
<path d="M90.8528 24.2364C90.8528 24.2364 90.9606 24.1295 91.001 24.076C90.9471 24.1295 90.8932 24.1829 90.8528 24.2364Z" fill="white"/>
<path d="M98.6284 21.8849C98.7362 21.9116 98.844 21.9517 98.9653 21.9784C98.8575 21.9517 98.7497 21.9116 98.6284 21.8849Z" fill="white"/>
<path d="M91.4055 23.6886C91.5133 23.5951 91.6211 23.5015 91.7424 23.4214C91.6346 23.5149 91.5133 23.5951 91.4055 23.6886Z" fill="white"/>
<path d="M123.477 52.4943L103.143 24.8777C102.482 23.9825 101.66 23.261 100.744 22.74C100.973 22.8736 101.189 23.0206 101.404 23.1675C104.935 25.7194 105.703 30.6629 103.129 34.1634L96.7283 42.8612L110.662 61.7667C113.236 65.2672 118.222 66.0288 121.753 63.4769C125.283 60.925 126.051 55.9815 123.477 52.481V52.4943Z" fill="white"/>
<path d="M97.0652 21.6711C97.2269 21.6711 97.4021 21.6978 97.5638 21.7112C97.4021 21.6978 97.2404 21.6711 97.0652 21.6711Z" fill="white"/>
<path d="M90.3542 24.8242C90.3542 24.8242 90.3812 24.7975 90.3947 24.7708C90.3947 24.7842 90.3677 24.7975 90.3542 24.8242Z" fill="white"/>
<path d="M92.6453 22.7801C93.7503 22.1254 94.99 21.7513 96.2433 21.6845C95.0035 21.7513 93.7637 22.112 92.6453 22.7801Z" fill="white"/>
<path d="M101.404 23.1675C101.189 23.0072 100.973 22.8736 100.744 22.74C100.69 22.7133 100.65 22.6865 100.596 22.6598C100.421 22.5663 100.245 22.4728 100.07 22.3926C99.9623 22.3392 99.8411 22.2991 99.7332 22.259C99.612 22.2055 99.4907 22.1521 99.3694 22.112C99.2346 22.0719 99.0999 22.0319 98.9651 21.9918C98.8573 21.9651 98.7495 21.925 98.6282 21.8983C98.507 21.8715 98.3722 21.8448 98.2509 21.8181C98.1162 21.7914 97.9949 21.7646 97.8601 21.7513C97.7658 21.7379 97.658 21.7246 97.5637 21.7246C97.402 21.7112 97.2402 21.6845 97.0651 21.6845C97.0112 21.6845 96.9573 21.6845 96.8899 21.6845C96.6743 21.6845 96.4721 21.6845 96.2565 21.6845C96.2565 21.6845 96.2431 21.6845 96.2296 21.6845C94.9629 21.7646 93.7231 22.1387 92.6316 22.7801C92.6316 22.7801 92.6046 22.7934 92.5912 22.8068C92.389 22.927 92.1869 23.0606 91.9982 23.2076C91.9039 23.2744 91.823 23.3546 91.7287 23.4214C91.6209 23.5149 91.4996 23.5951 91.3918 23.6886C91.2571 23.8088 91.1223 23.9424 90.9875 24.0761C90.9336 24.1295 90.8798 24.1696 90.8393 24.2364C90.6776 24.4101 90.5294 24.5971 90.3811 24.7842C90.3811 24.7975 90.3542 24.8109 90.3407 24.8376C88.3329 27.5365 88.2116 31.3309 90.3003 34.1634L96.7147 42.8613L103.116 34.1634C105.689 30.6629 104.908 25.7194 101.391 23.1675H101.404Z" fill="white"/>
<path d="M22.5449 24.076C22.6797 23.9424 22.801 23.8088 22.9492 23.6886C22.8144 23.8088 22.6797 23.9424 22.5449 24.076Z" fill="white"/>
<path d="M29.7947 21.8181C29.9294 21.8448 30.0507 21.8715 30.172 21.8982C30.0507 21.8715 29.916 21.8448 29.7947 21.8181Z" fill="white"/>
<path d="M24.1484 22.8068C24.1484 22.8068 24.1754 22.7934 24.1889 22.7801C24.1889 22.7801 24.1619 22.7934 24.1484 22.8068Z" fill="white"/>
<path d="M31.2771 22.2456C31.3849 22.2857 31.5062 22.3391 31.614 22.3792C31.5062 22.3258 31.3849 22.2857 31.2771 22.2456Z" fill="white"/>
<path d="M32.1394 22.6598C32.1394 22.6598 32.2337 22.7133 32.2876 22.74C32.2337 22.7133 32.1933 22.6865 32.1394 22.6598Z" fill="white"/>
<path d="M21.898 24.8242C21.898 24.8242 21.871 24.8643 21.8576 24.8777L1.52284 52.4943C-1.05101 55.9949 -0.269422 60.9383 3.24772 63.4902C6.76486 66.0421 11.7643 65.2672 14.3382 61.7801L28.272 42.8612L21.8576 34.1634C19.7688 31.3176 19.8901 27.5231 21.898 24.8376V24.8242Z" fill="url(#paint1_linear_308_820)"/>
<path d="M23.5958 23.1675C23.5958 23.1675 23.5689 23.1942 23.5554 23.1942C23.7441 23.0473 23.9462 22.927 24.1483 22.7934C23.9597 22.9137 23.771 23.0205 23.5958 23.1542V23.1675Z" fill="white"/>
<path d="M22.3965 24.2364C22.3965 24.2364 22.5043 24.1295 22.5447 24.076C22.4908 24.1295 22.4369 24.1829 22.3965 24.2364Z" fill="white"/>
<path d="M30.1721 21.8849C30.2799 21.9116 30.3877 21.9517 30.509 21.9784C30.4012 21.9517 30.2934 21.9116 30.1721 21.8849Z" fill="white"/>
<path d="M22.9492 23.6886C23.057 23.5951 23.1648 23.5015 23.2861 23.4214C23.1783 23.5149 23.057 23.5951 22.9492 23.6886Z" fill="white"/>
<path d="M55.0211 52.4943L34.6864 24.8777C34.0261 23.9825 33.2041 23.261 32.2877 22.74C32.5168 22.8736 32.7324 23.0206 32.948 23.1675C36.4786 25.7194 37.2467 30.6629 34.6729 34.1634L28.272 42.8612L42.2058 61.7667C44.7796 65.2672 49.7656 66.0288 53.2962 63.4769C56.8268 60.925 57.595 55.9815 55.0211 52.481V52.4943Z" fill="white"/>
<path d="M28.6089 21.6711C28.7706 21.6711 28.9458 21.6978 29.1075 21.7112C28.9458 21.6978 28.7841 21.6711 28.6089 21.6711Z" fill="white"/>
<path d="M21.8979 24.8242C21.8979 24.8242 21.9249 24.7975 21.9384 24.7708C21.9384 24.7842 21.9114 24.7975 21.8979 24.8242Z" fill="white"/>
<path d="M24.189 22.7801C25.294 22.1254 26.5337 21.7513 27.787 21.6845C26.5472 21.7513 25.3074 22.112 24.189 22.7801Z" fill="white"/>
<path d="M32.9479 23.1675C32.7323 23.0072 32.5167 22.8736 32.2876 22.74C32.2337 22.7133 32.1933 22.6865 32.1394 22.6598C31.9642 22.5663 31.789 22.4728 31.6138 22.3926C31.506 22.3392 31.3847 22.2991 31.2769 22.259C31.1557 22.2055 31.0344 22.1521 30.9131 22.112C30.7783 22.0719 30.6436 22.0319 30.5088 21.9918C30.401 21.9651 30.2932 21.925 30.1719 21.8983C30.0507 21.8715 29.9159 21.8448 29.7946 21.8181C29.6599 21.7914 29.5386 21.7646 29.4038 21.7513C29.3095 21.7379 29.2017 21.7246 29.1074 21.7246C28.9457 21.7112 28.784 21.6845 28.6088 21.6845C28.5549 21.6845 28.501 21.6845 28.4336 21.6845C28.218 21.6845 28.0158 21.6845 27.8002 21.6845C27.8002 21.6845 27.7868 21.6845 27.7733 21.6845C26.5066 21.7646 25.2668 22.1387 24.1753 22.7801C24.1753 22.7801 24.1483 22.7934 24.1349 22.8068C23.9327 22.927 23.7306 23.0606 23.5419 23.2076C23.4476 23.2744 23.3667 23.3546 23.2724 23.4214C23.1646 23.5149 23.0433 23.5951 22.9355 23.6886C22.8008 23.8088 22.666 23.9424 22.5313 24.0761C22.4774 24.1295 22.4235 24.1696 22.383 24.2364C22.2213 24.4101 22.0731 24.5971 21.9249 24.7842C21.9249 24.7975 21.8979 24.8109 21.8844 24.8376C19.8766 27.5365 19.7553 31.3309 21.844 34.1634L28.2584 42.8613L34.6593 34.1634C37.2332 30.6629 36.4516 25.7194 32.9345 23.1675H32.9479Z" fill="white"/>
</g>
<path d="M144.152 17.2993C143.985 15.7027 142.579 14.7734 140.601 14.7734C138.481 14.7734 137.146 15.8457 137.146 17.3231C137.146 18.9673 138.933 19.5868 140.292 19.9204L141.96 20.3732C144.176 20.8974 146.916 22.1127 146.94 25.2342C146.916 28.1414 144.605 30.2859 140.53 30.2859C136.67 30.2859 134.239 28.3558 134.072 25.2104H136.693C136.86 27.0929 138.504 27.9984 140.53 27.9984C142.722 27.9984 144.319 26.8784 144.343 25.1866C144.319 23.6854 142.913 23.0658 141.078 22.5892L139.029 22.0412C136.265 21.2787 134.525 19.8728 134.525 17.4661C134.525 14.4875 137.194 12.5097 140.673 12.5097C144.176 12.5097 146.63 14.5113 146.702 17.2993H144.152ZM149.508 30V12.748H160.326V15.0117H152.129V20.2302H159.754V22.4701H152.129V27.7363H160.421V30H149.508ZM178.287 21.374C178.287 26.8784 174.975 30.2383 170.519 30.2383C166.015 30.2383 162.727 26.8784 162.727 21.374C162.727 15.8457 166.015 12.5097 170.519 12.5097C174.975 12.5097 178.287 15.8457 178.287 21.374ZM175.69 21.374C175.69 17.1801 173.474 14.9164 170.519 14.9164C167.54 14.9164 165.324 17.1801 165.324 21.374C165.324 25.5678 167.54 27.8316 170.519 27.8316C173.474 27.8316 175.69 25.5678 175.69 21.374ZM190.386 17.2993C190.22 15.7027 188.814 14.7734 186.836 14.7734C184.715 14.7734 183.381 15.8457 183.381 17.3231C183.381 18.9673 185.168 19.5868 186.526 19.9204L188.194 20.3732C190.41 20.8974 193.151 22.1127 193.174 25.2342C193.151 28.1414 190.839 30.2859 186.764 30.2859C182.904 30.2859 180.474 28.3558 180.307 25.2104H182.928C183.095 27.0929 184.739 27.9984 186.764 27.9984C188.957 27.9984 190.553 26.8784 190.577 25.1866C190.553 23.6854 189.147 23.0658 187.312 22.5892L185.263 22.0412C182.499 21.2787 180.76 19.8728 180.76 17.4661C180.76 14.4875 183.428 12.5097 186.907 12.5097C190.41 12.5097 192.865 14.5113 192.936 17.2993H190.386ZM197.077 30H194.289L200.484 12.748H203.51L209.73 30H206.942L205.369 25.4487H198.649L197.077 30ZM199.412 23.2565H204.606L202.057 15.8934H201.938L199.412 23.2565ZM225.594 12.748V30H223.187L214.442 17.3946H214.299V30H211.678V12.748H214.108L222.854 25.3772H223.02V12.748H225.594ZM146.439 47.3715C146.011 45.1555 144.176 43.9164 141.983 43.9164C139.005 43.9164 136.789 46.2039 136.789 50.374C136.789 54.5678 139.029 56.8316 141.983 56.8316C144.152 56.8316 145.987 55.6163 146.439 53.4241L149.084 53.4479C148.536 56.8554 145.748 59.2383 141.96 59.2383C137.456 59.2383 134.191 55.8784 134.191 50.374C134.191 44.8457 137.48 41.5097 141.96 41.5097C145.605 41.5097 148.489 43.6543 149.084 47.3715H146.439ZM151.676 59V41.748H154.297V49.2302H162.876V41.748H165.497V59H162.876V51.4701H154.297V59H151.676ZM168.779 59V41.748H179.598V44.0117H171.401V49.2302H179.026V51.4701H171.401V56.7363H179.693V59H168.779ZM194.247 47.3715C193.818 45.1555 191.983 43.9164 189.791 43.9164C186.812 43.9164 184.596 46.2039 184.596 50.374C184.596 54.5678 186.836 56.8316 189.791 56.8316C191.959 56.8316 193.794 55.6163 194.247 53.4241L196.892 53.4479C196.344 56.8554 193.556 59.2383 189.767 59.2383C185.263 59.2383 181.999 55.8784 181.999 50.374C181.999 44.8457 185.287 41.5097 189.767 41.5097C193.413 41.5097 196.296 43.6543 196.892 47.3715H194.247ZM199.483 59V41.748H202.104V49.9689H202.319L209.539 41.748H212.827L205.869 49.5161L212.851 59H209.682L204.13 51.3033L202.104 53.6385V59H199.483Z" fill="white"/>
<defs>
<linearGradient id="paint0_linear_308_820" x1="101.175" y1="25.1048" x2="84.0136" y2="46.8657" gradientUnits="userSpaceOnUse">
<stop stop-color="#A2DAD5"/>
<stop offset="0.5" stop-color="#D5EEF0"/>
<stop offset="1" stop-color="white"/>
</linearGradient>
<linearGradient id="paint1_linear_308_820" x1="32.382" y1="25.5324" x2="15.2204" y2="47.2799" gradientUnits="userSpaceOnUse">
<stop stop-color="#A2DAD5"/>
<stop offset="0.5" stop-color="#D5EEF0"/>
<stop offset="1" stop-color="white"/>
</linearGradient>
<clipPath id="clip0_308_820">
<rect width="125" height="65" fill="white"/>
</clipPath>
</defs>
</svg>

<svg xmlns="http://www.w3.org/2000/svg" fill="none" viewBox="0 0 228 65"><g clip-path="url(#a)"><path fill="#fff" d="M91.33 12.5a7.83 7.83 0 0 0-1.73-11 8 8 0 0 0-11.1 1.72L42.22 52.5a7.83 7.83 0 0 0 1.73 11 8 8 0 0 0 11.1-1.72zM91 24.08l.4-.4zm7.25-2.26.38.08zm-5.65.98.05-.02zm7.13-.55.34.13q-.16-.08-.34-.13m.87.41.14.08z"/><path fill="url(#b)" d="m90.35 24.82-.04.06-20.33 27.61a7.85 7.85 0 0 0 1.72 11 8 8 0 0 0 11.1-1.71l13.93-18.92-6.42-8.7a7.8 7.8 0 0 1 .04-9.32z"/><path fill="#fff" d="m92.05 23.17-.04.02.6-.4q-.3.17-.56.36zm-1.2 1.07.15-.16zm7.78-2.36.34.1zm-7.23 1.81q.16-.15.34-.27zm32.07 28.81-20.34-27.62a8 8 0 0 0-1.74-1.71 7.84 7.84 0 0 1 1.73 11l-6.4 8.7 13.93 18.9a8 8 0 0 0 11.1 1.7 7.84 7.84 0 0 0 1.72-10.99zm-26.4-30.83.5.04zm-6.72 3.15.04-.05zm2.3-2.04"/><path fill="#fff" d="M101.4 23.17q-.31-.24-.66-.43l-.14-.08q-.26-.15-.53-.27-.16-.08-.34-.13l-.36-.15-.4-.12-.34-.1-.38-.07q-.2-.05-.39-.07l-.3-.03c-.16 0-.32-.04-.5-.04h-.83c-1.27.08-2.5.46-3.6 1.1l-.04.03q-.3.18-.6.4l-.26.21q-.16.14-.34.27l-.4.39q-.09.07-.15.16-.24.26-.46.54l-.04.06c-2 2.7-2.13 6.5-.04 9.32l6.41 8.7 6.4-8.7a7.86 7.86 0 0 0-1.72-11zm-78.86.91.4-.4zm7.26-2.26.37.08zm-5.65.98.04-.02zm7.13-.55.33.13zm.86.41.15.08z"/><path fill="url(#c)" d="m21.9 24.82-.04.06L1.52 52.49a7.85 7.85 0 0 0 1.73 11 8 8 0 0 0 11.09-1.71l13.93-18.92-6.41-8.7a7.8 7.8 0 0 1 .04-9.32z"/><path fill="#fff" d="m23.6 23.17-.04.02.59-.4q-.29.17-.55.36zm-1.2 1.07.14-.16zm7.77-2.36.34.1zm-7.22 1.81q.15-.15.34-.27zM55.02 52.5 34.7 24.87a8 8 0 0 0-2.4-2.14q.34.2.66.43a7.84 7.84 0 0 1 1.72 11l-6.4 8.7 13.94 18.9a8 8 0 0 0 11.09 1.7 7.84 7.84 0 0 0 1.72-10.99zM28.6 21.67q.27.01.5.04-.23-.03-.5-.04m-6.7 3.15.04-.05zm2.29-2.04"/><path fill="#fff" d="M32.95 23.17q-.32-.24-.66-.43l-.15-.08q-.27-.15-.53-.27l-.33-.13-.37-.15-.4-.12-.34-.1-.38-.07q-.19-.05-.39-.07l-.3-.03c-.15 0-.32-.04-.5-.04h-.83c-1.26.08-2.5.46-3.6 1.1l-.04.03q-.3.18-.59.4l-.27.21-.33.27q-.2.18-.4.39-.1.07-.16.16l-.46.54q0 .02-.04.06c-2 2.7-2.12 6.5-.04 9.32l6.42 8.7 6.4-8.7a7.85 7.85 0 0 0-1.73-11z"/></g><path fill="#fff" d="M144.15 17.3c-.16-1.6-1.57-2.53-3.55-2.53-2.12 0-3.45 1.08-3.45 2.55 0 1.65 1.78 2.27 3.14 2.6l1.67.45c2.22.53 4.96 1.74 4.98 4.86-.02 2.91-2.34 5.06-6.41 5.06-3.86 0-6.3-1.93-6.46-5.08h2.62c.17 1.88 1.81 2.79 3.84 2.79 2.2 0 3.79-1.12 3.81-2.81-.02-1.5-1.43-2.12-3.26-2.6l-2.05-.55c-2.77-.76-4.5-2.17-4.5-4.57 0-2.98 2.66-4.96 6.14-4.96 3.5 0 5.96 2 6.03 4.79zm5.36 12.7V12.75h10.82V15h-8.2v5.22h7.62v2.24h-7.62v5.27h8.3V30zm28.78-8.63c0 5.5-3.31 8.87-7.77 8.87-4.5 0-7.8-3.36-7.8-8.87s3.3-8.86 7.8-8.86c4.45 0 7.77 3.34 7.77 8.86m-2.6 0c0-4.19-2.22-6.45-5.17-6.45-2.98 0-5.2 2.26-5.2 6.45s2.22 6.46 5.2 6.46c2.95 0 5.17-2.26 5.17-6.46m14.7-4.07c-.17-1.6-1.58-2.53-3.55-2.53-2.12 0-3.46 1.08-3.46 2.55 0 1.65 1.79 2.27 3.15 2.6l1.66.45c2.22.53 4.96 1.74 4.98 4.86-.02 2.91-2.33 5.06-6.4 5.06-3.87 0-6.3-1.93-6.46-5.08h2.62c.16 1.88 1.8 2.79 3.83 2.79 2.2 0 3.8-1.12 3.82-2.81-.03-1.5-1.43-2.12-3.27-2.6l-2.05-.55c-2.76-.76-4.5-2.17-4.5-4.57 0-2.98 2.67-4.96 6.15-4.96 3.5 0 5.96 2 6.03 4.79zm6.69 12.7h-2.8l6.2-17.25h3.03L209.73 30h-2.79l-1.57-4.55h-6.72zm2.33-6.74h5.2l-2.55-7.37h-.12zm26.18-10.51V30h-2.4l-8.75-12.6h-.14V30h-2.62V12.75h2.43l8.74 12.63h.17V12.75zm-79.15 34.62c-.43-2.21-2.26-3.45-4.46-3.45-2.97 0-5.2 2.28-5.2 6.45 0 4.2 2.25 6.46 5.2 6.46 2.17 0 4-1.21 4.46-3.4l2.64.02c-.54 3.4-3.33 5.79-7.12 5.79-4.5 0-7.77-3.36-7.77-8.87s3.29-8.86 7.77-8.86c3.64 0 6.53 2.14 7.12 5.86zM151.68 59V41.75h2.62v7.48h8.58v-7.48h2.62V59h-2.62v-7.53h-8.58V59zm17.1 0V41.75h10.82V44h-8.2v5.22h7.63v2.24h-7.63v5.27h8.3V59zm25.47-11.63c-.43-2.21-2.27-3.45-4.46-3.45-2.98 0-5.2 2.28-5.2 6.45 0 4.2 2.25 6.46 5.2 6.46 2.17 0 4-1.21 4.46-3.4l2.64.02c-.55 3.4-3.33 5.79-7.12 5.79-4.5 0-7.77-3.36-7.77-8.87s3.29-8.86 7.77-8.86c3.64 0 6.53 2.14 7.12 5.86zM199.48 59V41.75h2.62v8.22h.22l7.22-8.22h3.29l-6.96 7.77 6.98 9.48h-3.17l-5.55-7.7-2.03 2.34V59z"/><defs><linearGradient id="b" x1="101.17" x2="84.01" y1="25.1" y2="46.87" gradientUnits="userSpaceOnUse"><stop stop-color="#a2dad5"/><stop offset=".5" stop-color="#d5eef0"/><stop offset="1" stop-color="#fff"/></linearGradient><linearGradient id="c" x1="32.38" x2="15.22" y1="25.53" y2="47.28" gradientUnits="userSpaceOnUse"><stop stop-color="#a2dad5"/><stop offset=".5" stop-color="#d5eef0"/><stop offset="1" stop-color="#fff"/></linearGradient><clipPath id="a"><path fill="#fff" d="M0 0h125v65H0z"/></clipPath></defs></svg>
